X: 9117
T: Da Tushkar
R: reel
M: 4/4
K: Amajor
cB|:Aafa edcB|A2 cA EAcA|cefg afec|d2B2B2 ag|
fgaf edcB|A2 cA EAcA|Bcde fefg|1 a2A2 A2 cB:|2 a2A2 A2 dc||
|:BeGe BGEG|AecA EAcA|cefg afec|
[1d2B2B2 dc|BeGe BGEG|AecA EAcA|Bcde fefg|a2A2A2 dc:|
[2d2B2B2 ag|fgaf edcB|A2 cA EAcA|Bcde fefg|a2A2A2 cB||

